src/assets/icon-20-feedback.svg

<?xml version="1.0" encoding="UTF-8"?>
<svg width="20px" height="20px" viewBox="0 0 20 20" version="1.1" xmlns="http://www.w3.org/2000/svg" xmlns:xlink="http://www.w3.org/1999/xlink">
    <g id="Assets" stroke="none" stroke-width="1" fill="none" fill-rule="evenodd">
        <g id="icon-20-feedback" fill-rule="nonzero" fill="#27322F">
            <path d="M16,10 L16,4 L4,4 L4,13 L8.99221778,13 L16,13 L16,10 Z M11.5155644,15 L5,18.7231797 L5,15 L3,15 C2.44771525,15 2,14.5522847 2,14 L2,3 C2,2.44771525 2.44771525,2 3,2 L17,2 C17.5522847,2 18,2.44771525 18,3 L18,14 C18,14.5522847 17.5522847,15 17,15 L11.5155644,15 Z M6.5,13 L7,13 L7,15.2768203 L10.9844356,13 L6.5,13 Z M7,9.5 C6.44771525,9.5 6,9.05228475 6,8.5 C6,7.94771525 6.44771525,7.5 7,7.5 C7.55228475,7.5 8,7.94771525 8,8.5 C8,9.05228475 7.55228475,9.5 7,9.5 Z M10,9.5 C9.44771525,9.5 9,9.05228475 9,8.5 C9,7.94771525 9.44771525,7.5 10,7.5 C10.5522847,7.5 11,7.94771525 11,8.5 C11,9.05228475 10.5522847,9.5 10,9.5 Z M13,9.5 C12.4477153,9.5 12,9.05228475 12,8.5 C12,7.94771525 12.4477153,7.5 13,7.5 C13.5522847,7.5 14,7.94771525 14,8.5 C14,9.05228475 13.5522847,9.5 13,9.5 Z" id="Combined-Shape"></path>
        </g>
    </g>
</svg>

<svg width="20" height="20" xmlns="http://www.w3.org/2000/svg"><path d="M16 10V4H4v9h12v-3zm-4.484 5L5 18.723V15H3a1 1 0 0 1-1-1V3a1 1 0 0 1 1-1h14a1 1 0 0 1 1 1v11a1 1 0 0 1-1 1h-5.484zM6.5 13H7v2.277L10.984 13H6.5zM7 9.5a1 1 0 1 1 0-2 1 1 0 0 1 0 2zm3 0a1 1 0 1 1 0-2 1 1 0 0 1 0 2zm3 0a1 1 0 1 1 0-2 1 1 0 0 1 0 2z" fill-rule="nonzero" fill="#27322F"/></svg>
